libs/ui/packages/crypto-icons/src/svg/AUTO.svg

<svg width="24" height="24" viewBox="0 0 24 24" fill="none">
<path fill-rule="evenodd" clip-rule="evenodd" d="M18.375 14.4503L15.2362 12.567L15.5963 11.0753L16.9365 11.8665V9.1425L12.6315 6.576V12.501L11.6077 13.0673L17.2612 16.4198L12 19.5L5.625 15.7665V8.30025L12 4.5L18.375 8.30025V14.4503ZM7.0635 9.1425V14.001L11.202 11.601V6.675L7.0635 9.14175V9.1425ZM10.1363 13.9005L7.78275 15.3397L12 17.8088L14.3812 16.4137L10.1363 13.8998V13.9005Z" fill="#FAB431"/>
</svg>

<svg width="24" height="24" viewBox="0 0 24 24" fill="none"><path fill="#fab431" fill-rule="evenodd" d="m18.375 14.45-3.139-1.883.36-1.492 1.34.792V9.142l-4.304-2.566v5.925l-1.024.566 5.653 3.353L12 19.5l-6.375-3.733V8.3L12 4.5l6.375 3.8zM7.064 9.143V14l4.138-2.4V6.675L7.064 9.142m3.072 4.757-2.353 1.44L12 17.809l2.381-1.395z" clip-rule="evenodd"/></svg>
